X:4
T:"Smoke In The Wind" by Mickie Zekley  1988
D:Written while playing the pennywhistle, driving across the Arizona desert and seeing smoke in the wind. Aren't elbows wonderful.
S:Original Tune
R:Jig
O:Arizona Desert
M:6/8
Q:300
F:http://larkcamp.com/meabc.txt
K:G
~g3 gfe|ded BAG|!A3 ABd|~e3 edB|~g3 gfe|ded BAG|~A3 ABd|1~e3 ez f:|2~e3 ez2|:~E3 ~G3|~A3 ~e3|dfd BAG|~A3 BGE|~E3 ~G3|~A3 dBd|gfe dBd|~e3 ez2:|
